X:1
T:Title
%%score { ( 1 3 ) | ( 2 4 ) }
L:1/8
M:9/8
K:Bb
V:1 treble nm="Grand Piano"
V:3 treble 
V:2 bass 
V:4 bass 
V:1
 z3 z3[Q:1/4=100] [DF][EG][DF] | [Fd]3 [FB]3 cBG | z3 z3 .F3 | E3 A3 GFE |[M:3/4] D6 | %5
[M:3/8] [DF][EG][DF] |[M:9/8] [Fd]3 [DB]3 AB[Dc] | B3 G3 GA[FB] | [Fc]2 [=EB] [EA]3 [EG]3 | %9
[M:3/4] F6 |[M:3/8] FGF |[M:9/8] A3 F3 AB[Fc] | [Fd]3 [DB]3 [DB]cd | [Gf]3 [Ge]3 dcG |[M:3/4] c6 | %15
[M:3/8] [Fd][Ec][Fd] |[M:9/8] [DB]3 [B,DF]3 [DB]cd | [Ge]3 G3 A2 G | F2 G F3 A3 |[M:3/4] [DB]6 |] %20
V:2
 z3 z3 [B,,B,]2 [B,,B,] | [B,,B,]3 [D,B,]3 [E,G,E]2 [E,B,E] | %2
 [B,,B,]3 [B,,F,]3 [B,,B,]2 [B,,F,B,] | [F,A,C]3 [F,CF]3 [A,E][B,D][F,C] |[M:3/4] [B,,F,B,]6 | %5
[M:3/8] [B,,B,]2 [B,,B,] |[M:9/8] [B,,B,]3 [B,,F,]3 [B,,F,]2 [B,,F,] | %7
 [E,G,E]3 [E,B,E]3 [B,E][CF][D,B,] | [C,A,]2 [C,G,] [C,C]3 [C,B,]3 |[M:3/4] [F,A,]6 | %10
[M:3/8] [F,E]-[F,B,E][F,A,E] |[M:9/8] [F,CE]3 [F,A,E]3 F-[D,B,F][C,A,] | z3 z3 .B,3[K:treble] | %13
 [E,B,]3 [E,B,]3 [=E,B,]2 [E,B,] |[M:3/4] [F,A,F]6 |[M:3/8] [B,,B,]2 [B,,B,] | %16
[M:9/8] z3 z3 .B,3[K:treble] | [E,B,]3 [E,B,E]3 [=E,B,_D]2 [E,B,D] | %18
 [F,B,D]2 [F,B,D] [F,A,E]3 [F,CE]3 |[M:3/4] [B,,B,]6 |] %20
V:3
 x9 | x9 | [DF]3 [B,D]3 D-[DG]D | x9 |[M:3/4] x6 |[M:3/8] x3 |[M:9/8] z3 z3 .D3 | x9 | x9 | %9
[M:3/4] x6 |[M:3/8] x3 |[M:9/8] x9 | x9 | z3 z3 .G3 |[M:3/4] x6 |[M:3/8] x3 |[M:9/8] x9 | x9 | x9 | %19
[M:3/4] x6 |] %20
V:4
 x9 | x9 | x9 | z3 z3 .F,3 |[M:3/4] x6 |[M:3/8] x3 |[M:9/8] x9 | z3 z3 .E,3 | x9 |[M:3/4] x6 | %10
[M:3/8] A, z z |[M:9/8] z3 z3 .[E,C]3 | [B,,B,]3 [B,,F,]3 z[K:treble] E[B,F_A] | x9 |[M:3/4] x6 | %15
[M:3/8] x3 |[M:9/8] [B,,F,]3 B,,3 z[K:treble] E[B,F] | x9 | x9 |[M:3/4] x6 |] %20

